<?xml version="1.0" encoding="UTF-8"?>
<map version="1.10" tiledversion="1.11.0" orientation="orthogonal" renderorder="right-down" width="60" height="20" tilewidth="64" tileheight="64" infinite="0" nextlayerid="8" nextobjectid="38">
 <tileset firstgid="1" source="../tilesets/outside.tsx"/>
 <tileset firstgid="49" source="../../../Super-Pirate-World-main/data/tilesets/items.tsx"/>
 <tileset firstgid="54" source="../tilesets/entities.tsx"/>
 <tileset firstgid="56" source="../../../Super-Pirate-World-main/data/tilesets/objects.tsx"/>
 <tileset firstgid="84" source="../../../gamestates/data/tilesets/outside.tsx"/>
 <layer id="1" name="terrain" width="60" height="20">
  <data encoding="csv">
0,96,97,98,0,0,0,0,0,0,0,0,0,0,0,0,0,0,0,0,0,0,0,0,0,0,0,0,0,0,0,0,0,0,0,0,0,0,0,0,0,0,0,0,0,0,0,0,0,0,0,0,0,0,0,0,0,0,0,0,
0,108,97,113,0,0,0,0,0,0,0,0,0,0,0,0,0,0,0,0,0,0,0,0,0,0,0,0,0,0,0,0,0,0,0,0,0,0,0,0,0,0,0,0,0,0,0,0,0,0,0,0,0,0,0,0,0,0,0,0,
0,0,108,113,0,0,0,0,0,0,0,0,0,0,0,0,0,0,0,0,0,0,0,0,0,0,0,0,0,0,0,0,0,0,0,0,0,0,0,0,0,0,0,0,0,0,0,0,0,0,0,0,0,0,0,0,0,0,0,0,
0,0,0,99,0,0,0,0,0,0,0,0,0,0,0,0,0,0,0,0,0,0,0,0,0,0,0,0,0,37,38,39,0,0,0,0,0,0,0,0,0,0,0,0,0,0,0,0,0,0,0,0,0,0,0,0,0,0,0,0,
86,0,0,111,0,0,0,0,0,0,0,0,0,0,0,84,121,121,121,86,0,0,0,0,0,0,0,0,0,0,0,0,0,0,0,0,0,0,0,0,0,0,0,0,0,0,0,0,0,0,0,0,0,0,0,0,0,0,0,0,
98,0,0,99,0,0,0,0,0,0,0,0,0,0,0,111,0,0,0,130,32,2,31,39,0,0,0,0,0,0,0,0,0,0,0,32,31,0,0,0,0,0,0,0,0,0,0,0,0,0,0,0,0,0,0,0,0,0,0,0,
100,86,0,99,0,0,0,0,0,84,85,85,86,0,0,120,0,0,0,0,25,26,27,0,0,0,0,0,0,0,0,0,0,0,37,44,27,0,0,0,0,0,0,0,0,0,0,0,0,0,0,0,0,0,0,0,0,0,0,0,
97,100,2,3,0,0,84,85,85,101,97,97,98,0,0,120,121,122,0,0,0,0,0,0,0,0,0,0,0,0,0,0,0,0,0,0,0,0,0,0,0,0,0,0,0,0,0,0,0,0,0,0,0,0,0,0,0,0,0,0,
109,109,26,27,120,120,96,97,97,97,88,109,110,120,120,120,0,0,0,0,0,0,0,0,0,0,0,0,0,0,0,0,0,0,0,0,0,0,0,0,0,0,0,0,0,0,0,0,0,0,0,0,0,0,0,0,0,0,0,0,
0,0,0,0,0,0,108,109,109,109,110,0,0,0,0,0,0,0,0,0,0,0,0,0,0,0,0,0,0,0,0,0,0,0,0,0,0,0,0,0,0,0,0,0,0,0,0,0,0,0,0,0,0,0,0,0,0,0,0,0,
0,0,0,0,0,0,0,0,0,0,0,0,0,0,0,0,0,0,0,0,0,0,0,0,0,0,0,0,0,0,0,0,0,0,0,0,0,0,0,0,0,0,0,0,0,0,0,0,0,0,0,0,0,0,0,0,1,2,2,2,
0,0,0,0,0,0,0,0,0,0,0,0,0,0,0,0,0,0,0,0,0,0,0,0,0,0,0,0,0,0,0,0,0,0,0,0,0,0,0,0,0,0,0,0,0,0,0,0,1,2,2,2,3,0,0,0,13,14,14,14,
0,0,0,0,0,0,1,2,2,2,3,0,0,0,0,0,0,0,0,0,0,0,0,0,0,0,0,0,0,0,0,0,0,0,0,0,0,0,0,0,0,0,0,0,0,0,0,0,13,14,14,14,15,0,0,0,13,14,14,14,
0,0,1,2,2,2,2,14,14,14,15,0,0,0,0,0,0,0,0,0,0,0,40,0,0,0,1,2,2,2,2,2,3,0,0,40,0,0,0,0,0,0,0,0,0,0,0,1,18,14,14,14,15,0,0,0,13,14,14,14,
0,0,13,14,14,14,14,14,14,5,27,0,0,1,2,2,2,3,0,0,0,0,0,0,0,0,25,26,26,6,14,14,15,0,0,0,0,0,0,1,2,2,2,3,0,0,0,13,14,14,14,5,27,0,0,0,13,14,14,14,
0,0,13,14,14,14,14,14,14,15,0,0,0,13,14,14,14,15,0,0,0,0,0,0,0,0,0,0,0,13,14,14,15,0,0,0,0,0,0,13,14,14,5,27,0,0,0,13,14,14,14,15,0,0,0,1,18,14,14,14,
0,0,13,14,14,14,14,14,5,27,0,0,0,13,14,14,14,15,0,0,0,0,0,0,0,0,0,0,0,25,26,26,27,0,0,0,0,0,0,25,6,14,15,0,0,0,0,13,14,14,14,15,0,0,0,13,14,14,14,14,
0,0,13,14,14,14,14,14,27,0,0,0,0,13,14,14,14,15,0,0,0,0,0,0,0,0,0,0,0,0,0,0,0,0,0,0,0,0,0,0,25,26,27,0,0,0,0,13,14,14,14,15,0,0,0,13,14,14,14,14,
0,0,13,14,14,14,14,15,0,0,0,0,0,13,14,14,14,15,0,0,0,0,0,0,0,0,0,0,0,0,0,0,0,0,0,0,0,0,0,0,0,0,0,0,0,0,0,13,14,14,14,15,0,0,0,13,14,14,14,14,
0,0,13,14,14,14,14,15,0,0,0,0,0,13,14,14,14,15,0,0,0,0,0,0,0,0,0,0,0,0,0,0,0,0,0,0,0,0,0,0,0,0,0,0,0,0,0,13,14,14,14,15,0,0,0,13,14,14,14,14
</data>
 </layer>
 <objectgroup id="3" name="objects">
  <object id="1" name="player" gid="54" x="614.697" y="384.364" width="110" height="96"/>
  <object id="7" name="flag" gid="59" x="3644.79" y="641.485" width="68" height="186"/>
 </objectgroup>
 <objectgroup id="4" name="items">
  <object id="8" name="diamond" gid="49" x="3519.52" y="965.333" width="64" height="64"/>
  <object id="9" name="silver" gid="52" x="192.242" y="453.212" width="64" height="64"/>
  <object id="11" name="silver" gid="52" x="1277.09" y="259.273" width="64" height="64"/>
  <object id="12" name="silver" gid="52" x="1410.42" y="259.273" width="64" height="64"/>
  <object id="13" name="gold" gid="50" x="1343.76" y="192.606" width="64" height="64"/>
  <object id="14" name="silver" gid="52" x="831.636" y="898.667" width="64" height="64"/>
  <object id="15" name="silver" gid="52" x="958.909" y="898.667" width="64" height="64"/>
  <object id="16" name="skull" gid="53" x="1858.91" y="832" width="64" height="64"/>
  <object id="17" name="potion" gid="51" x="2401.33" y="256.242" width="64" height="64"/>
  <object id="18" name="gold" gid="50" x="2174.06" y="322.909" width="64" height="64"/>
 </objectgroup>
 <objectgroup id="5" name="enemies">
  <object id="22" name="tooth" gid="55" x="891.152" y="892.697" width="48" height="46"/>
  <object id="23" name="tooth" gid="55" x="139.636" y="438.151" width="48" height="46"/>
  <object id="24" name="tooth" gid="55" x="1342.67" y="319.97" width="48" height="46"/>
  <object id="25" name="tooth" gid="55" x="1721.45" y="826.03" width="48" height="46"/>
  <object id="26" name="tooth" gid="55" x="1979.03" y="826.03" width="48" height="46"/>
  <object id="28" name="tooth" gid="55" x="3127.52" y="698.758" width="48" height="46"/>
 </objectgroup>
 <objectgroup id="6" name="water">
  <object id="31" name="water" x="0" y="960" width="3840" height="320"/>
 </objectgroup>
 <objectgroup id="7" name="data">
  <object id="34" name="data" x="0" y="0" width="64" height="64"/>
 </objectgroup>
</map>
